X:1
T:Title
%%score { ( 1 3 ) | 2 }
L:1/8
Q:1/4=100
M:6/8
K:Ab
V:1 treble nm="Grand Piano"
V:3 treble 
V:2 bass 
V:1
 [CE][DF][CE] [CA]3 | BAF [CE]3 | [CE][EA]B c3 | cBA B3 | [Ec][DB][CA] [CE]3 | [DF][FA][DF] [CE]3 | %6
w: William~Kirkpatrick * * *||||||
 [CE][EA]B cBA | [DGB][EAc][DGB] [CEA]3 | BBB [EGB][EAc][EBd] | [Ac]6 | ccc cBA | e6 | ecB c3 | %13
w: |||||||
[M:15/16] cB/-B/AF3/2- F3 |[M:3/4] EA [Ac][Gc] [DGB][B,EG] | [CEA]6 |] %16
w: |||
V:2
 [A,,A,][A,,A,][A,,A,] [A,,E,]3 | [D,F,D][D,F,D][D,A,D] [A,,A,]3 | [A,,A,][C,A,][E,G,E] [A,E]3 | %3
 [F,A,=D][E,F,D][F,A,D] [E,G,E]3 | [A,,A,][A,,G,][A,,A,] [A,,A,]3 | [D,A,][D,A,][D,A,] [A,,A,]3 | %6
 [A,,A,][C,A,][E,G,E] [F,E][A,DE][A,CE] | E,E,E, A,,3 | GGG[K:bass] E,E,E, | A,A,A, .A,3 | %10
 AAA [A,EA][A,DG][K:bass][A,C] | [E,B,][E,D][E,C] .[E,B,]3 | [A,CE][A,E][E,G,E] [A,E]3 | %13
[M:15/16] [A,E][E,G,D]/-[E,G,D]/[F,A,C][D,A,D]3/2- [D,A,D]3 | %14
[M:3/4] [E,A,C][E,CE] [E,E][E,E] E,E, | A,E, C, .A,,3 |] %16
V:3
 x6 | x6 | x6 | x6 | x6 | x6 | x6 | x6 | x6 | EEE .E3 | x6 | GBA .G3 | x6 |[M:15/16] x15/2 | %14
[M:3/4] x6 | x6 |] %16

